X: 28312
T: Muckin' O' Geordie's Byre, The
R: jig
M: 6/8
K: Dmajor
B|:ABA AFA|ded def|Tg2 e Tf2 d|efd Bcd|
ABA AFA|def gab|{b} afd efe|1 d3 {e}dcB:|2 d3 d2||
|:/e/f/|gag gag|fgf gag|fed efg|Tfed Bcd|
ABA AFA|def gab|Tafd efe|d3 d3:|

